X: 1476
T: George Large's 1st Stepdance
B: australian traditional tunes wiki
M:C
L:1/8
R: Step Dance
Q: 1/4=100
K:A
V:1 
E2|:"A"AG Ac "E7"Bc BG|"A"AB cA "E7"F2E2|"A"AE Ac ec Ac|"E7"B2BAB2E2|
"A"AG Ac "E7"Bc BG|"A"AB cA "E7"F2E2|"A"AE Ac "E7"ec Ac|1"A"(3BcB A2A2E2:|2"A"(3BcB A2A2cd||
|:"A"e2ce "D"f2ec|"A"AB cA "E7"F2E2|"A"AE Ac ec Ac|"E7"B2BAB2cd|
"A"e2ce"D"f2ec|"A"AB cA "E7"F2E2|"A"AE Ac "E7"ec Ac|"A"(3BcB A2A2cd||
"A"e2ce "D"f2ec|"A"AB cA "E7"F2E2|"A"AE Ac ec Ac|"E7"B2BAB2E2|
"A"AG Ac "E7"Bc BG|"A"AB cA "E7"F2E2|"A"AF Ac "E7"ec Ac|"A"(3BcB A2A2||
% abcbook-tune_id 6342d53ac9b9320db81ecc18


% abcbook-boost 0
% abcbook-tablature 
% abcbook-transpose 
% abcbook-lastupdated 1665324366985
% abcbook-soundfonts 
% abcbook-repeats 1
% NFF Book 2007

